X:26
T:Hannaverion Waltz. TJD.26
M:6/8
L:1/8
Q:3/8=50
S:T.J.Dixon MS1, Lincolnshire, 1798
R:waltz
A:Lincolnshire, Holton le Moor
Z:vmp.R.Greig2010
K:C
Gceg2″_crotchet in MS”e|fdg ecc|Gceg2e|f”_undotted in MS”dg c3:|!
|:.e.e.e .f.f.f|ddd eee|ccc ddd|gfe “_both qu’s in MS”e2d|!
eee fff|ddd eee|ccc ddd|”_crotchet in MS”g (g/f/e/d/)c2:|]

